svg/printer_outline.svg

<svg xmlns="http://www.w3.org/2000/svg" viewBox="0 0 24 24"><path d="M19 8c1.66 0 3 1.34 3 3v6h-4v4H6v-4H2v-6c0-1.66 1.34-3 3-3h1V3h12v5zM8 5v3h8V5zm8 14v-4H8v4zm2-4h2v-4c0-.55-.45-1-1-1H5c-.55 0-1 .45-1 1v4h2v-2h12zm1-3.5c0 .55-.45 1-1 1s-1-.45-1-1 .45-1 1-1 1 .45 1 1"/></svg>

<svg xmlns="http://www.w3.org/2000/svg" id="mdi-printer-outline" viewBox="0 0 24 24"><path d="M19 8C20.66 8 22 9.34 22 11V17H18V21H6V17H2V11C2 9.34 3.34 8 5 8H6V3H18V8H19M8 5V8H16V5H8M16 19V15H8V19H16M18 15H20V11C20 10.45 19.55 10 19 10H5C4.45 10 4 10.45 4 11V15H6V13H18V15M19 11.5C19 12.05 18.55 12.5 18 12.5C17.45 12.5 17 12.05 17 11.5C17 10.95 17.45 10.5 18 10.5C18.55 10.5 19 10.95 19 11.5Z" /></svg>
